svgs/sharp-solid/heat.svg

<svg xmlns="http://www.w3.org/2000/svg" viewBox="0 0 448 512"><!--! Font Awesome Pro 6.6.0 by @fontawesome - https://fontawesome.com License - https://fontawesome.com/license (Commercial License) Copyright 2024 Fonticons, Inc. --><path d="M208 32l0 32 0 80c0 34.6 11.2 68.3 32 96l19.2 25.6C288.3 304.4 304 351.5 304 400l0 48 0 32-64 0 0-32 0-48c0-34.6-11.2-68.3-32-96l-19.2-25.6C159.7 239.6 144 192.5 144 144l0-80 0-32 64 0zM64 96l0 32 0 32c0 34.6 11.2 68.3 32 96l19.2 25.6C144.3 320.4 160 367.5 160 416l0 32 0 32-64 0 0-32 0-32c0-34.6-11.2-68.3-32-96L44.8 294.4C15.7 255.6 0 208.5 0 160l0-32L0 96l64 0zm288 32l0 32c0 34.6 11.2 68.3 32 96l19.2 25.6C432.3 320.4 448 367.5 448 416l0 32 0 32-64 0 0-32 0-32c0-34.6-11.2-68.3-32-96l-19.2-25.6C303.7 255.6 288 208.5 288 160l0-32 0-32 64 0 0 32z"/></svg>

<svg xmlns="http://www.w3.org/2000/svg" viewBox="0 0 448 512"><!--! Font Awesome Pro 6.4.0 by @fontawesome - https://fontawesome.com License - https://fontawesome.com/license (Commercial License) Copyright 2023 Fonticons, Inc. --><path d="M208 32V64v80c0 34.6 11.2 68.3 32 96l19.2 25.6C288.3 304.4 304 351.5 304 400v48 32H240V448 400c0-34.6-11.2-68.3-32-96l-19.2-25.6C159.7 239.6 144 192.5 144 144V64 32h64zM64 96v32 32c0 34.6 11.2 68.3 32 96l19.2 25.6C144.3 320.4 160 367.5 160 416v32 32H96V448 416c0-34.6-11.2-68.3-32-96L44.8 294.4C15.7 255.6 0 208.5 0 160V128 96H64zm288 32v32c0 34.6 11.2 68.3 32 96l19.2 25.6C432.3 320.4 448 367.5 448 416v32 32H384V448 416c0-34.6-11.2-68.3-32-96l-19.2-25.6C303.7 255.6 288 208.5 288 160V128 96h64v32z"/></svg>
